X:1
T:[ID 1-36]
T:[ID 1-36]
T:Bezeichnung standardisiert: Menuet Jomelli; Menuet Nro 1. Violino Secondo In anderer Quelle: Menuet van Jomelli - Hs. Volksmelodie\"en 1755-1773 (Anm. S. Wascher);
T:Urheber unbekannt Erstbeleg: 1755-1767 (Datum in der schriftlichen Quelle) Datum in der hier transkribierten schriftlichen Quelle: 1792
C:Urheber unbekannt
C:Erstbeleg: 1755-1767 (Datum in der schriftlichen Quelle)
C:Datum in der hier transkribierten schriftlichen Quelle: 1792
%%score 1 2
L:1/8
M:3/4
K:D
V:1 treble 
V:2 treble nm="Secondo"
V:1
 fd A2 G2 | FG A4 | fd A2 G2 | FG A4 | cd e2 e2 | Bc d2 d2 | cecAB^G | A6 :: TA4 a2 | agfa g2 | %10
 TA4 g2 | agfa g2 |"^O)" afdAFD | E4 D2 |"^O)" afdAFD | E4 D2 | fg a2 a2 | ef g2 g2 | fafdec | %19
 d6 :| %20
V:2
 !fermata!dA F2 E2 | DE F4 | dA F2 E2 | DE F4 | AB c2 c2 | ^GA B2 B2 | AcACDB, | C6 :: C4 f2 | %9
 fedf e2 | C4 e2 | fedf e2 |"^O)" fdAFDF | G4 F2 |"^O)" fdAFDF | G4 F2 | de f2 f2 | cd e2 e2 | %18
 [df]2 f [AG]2 [Gx] | x6 :| %20

